!!!COM: Beethoven, Ludwig van
!!!CDT: 1770///-1827///
!!!OTL: Piano Sonata no. 10 in G major
!!!OPS: 14
!!!ONM: 2
!!!OMV: 3
!!!OMD: Scherzo: Allegro assai
**kern	**kern	**dynam
*staff2	*staff1	*staff1/1
*Ipiano	*Ipiano	*Ipiano
*clefF4	*clefG2	*clefG2
*k[f#]	*k[f#]	*k[f#]
*G:	*G:	*G:
*M3/8	*M3/8	*M3/8
*MM120	*MM120	*MM120
8r	(16B/LL	p
.	16c/JJ	.
=1	=1	=1
4.r	8d'/)	.
.	(16e/LL	.
.	16f#/J	.
.	8g'/J)	.
=2	=2	=2
4.r	(16a\LL	.
.	16b\J	.
.	8cc'\J)	.
.	8cc#'\	.
=3	=3	=3
*^	*	*
4B/	[4.G\	(4dd\	.
16c/LL	.	16ee\LL	.
16A#/JJ	.	16cc#\JJ	.
=4	=4	=4	=4
8B'/	8G\]	8dd'\)	.
8r	8r	8r	.
8r	8r	(16b\LL	.
.	.	16ccn\JJ	.
*v	*v	*	*
=5	=5	=5
4.r	8dd'\)	.
.	(16ee\LL	.
.	16ff#\J	.
.	8gg'\J)	.
=6	=6	=6
4.r	(16aa\LL	.
.	16bb\J	.
.	8ccc'\J)	.
.	8ccc#'\	.
*clefG2	*	*
=7	=7	=7
*^	*	*
.	.	(ddq/	.
4b/	4.d\	(4ddd\)	.
16a/LL	.	16cccn\LL	.
16f#/JJ	.	16aa\JJ	.
=8	=8	=8	=8
8g/	8g\	8gg\)	.
8r	8r	8r	.
8r	8r	(24d/LL	p
.	.	24e/	.
.	.	24f#/JJ)	.
*v	*v	*	*
*clefF4	*	*
=9	=9	=9
8r	(24g/LL	.
.	24a/	.
.	24b/JJ)	.
8r	8cc'\	.
8D'\ 8A'\ 8c'\	8r	.
*clefG2	*	*
=10	=10	=10
8d'/ 8a'/ 8cc'/	8r	.
8r	8ccc'\	.
8r	(24d/LL	.
.	24e/	.
.	24f#/JJ)	.
*clefF4	*	*
=11	=11	=11
8r	(24g/LL	.
.	24a/	.
.	24b/JJ)	.
8r	8cc'\	.
8D'\ 8A'\ 8c'\	8r	.
*clefG2	*	*
=12	=12	=12
8d'/ 8a'/ 8cc'/	8r	.
8r	8ccc\	.
8r	(24d/LL	.
.	24e/	.
.	24f#/JJ)	.
=13	=13	=13
4.r	(24g\LL	<
.	24a\	.
.	24b\JJ)	.
.	(24cc\LL	.
.	24dd\	.
.	24ee\JJ	.
.	32ff#\LLL	.
.	32gg\	.
.	32aa\	.
.	32bb\JJJ)	.
*clefF4	*	*
=14	=14	=14
8r	8ccc'\L	.
8r	8ccc'\	.
(32DD/LLL	8ccc'\J	.
32EE/	.	.
32FF#/	.	.
32GG/JJJ	.	.
=15	=15	=15
24AA/LL	8ccc'\L	.
24BB/	.	.
24C/JJ	.	.
24D\LL	8aa'\	.
24E\	.	.
24F#\JJ	.	.
24G\LL	8gg'\J	.
24A\	.	.
24B\JJ)	.	.
=16	=16	=16
4c;\ 4d;\	4a;\ 4ff#;\	.
8r	(16b\LL	p
.	16cc\JJ	.
=17	=17	=17
4.r	8dd'\)	.
.	(16ee\LL	.
.	16ff#\J	.
.	8gg'\J)	.
=18	=18	=18
4.r	(16aa\LL	.
.	16bb\J	.
.	8ccc'\J)	.
.	8ccc#'\	.
*clefG2	*	*
=19	=19	=19
*^	*	*
4b/	[4.g'\	(4ddd'\	p
16cc/LL	.	16eee\LL	.
16a#/JJ	.	16ccc#\JJ	.
=20	=20	=20	=20
*	*	*^	*
8b/	8g\]	8r	8ddd'\)	.
8r	8r	8r	8r	.
*v	*v	*	*	*
*clefF4	*	*	*
*^	*	*	*
8c\	8r	(16cccn/LL	8ee\	.
.	.	16aa/JJ	.	.
*v	*v	*	*	*
=21	=21	=21	=21
8d\	8gg/)	8b\	.
8r	8r	8r	.
8D\	16aa/LL	(8cc\	.
.	16ff#/JJ	.	.
=22	=22	=22	=22
8G\	8gg/	8b\)	.
8r	8r	8r	.
8r	8r	8r	.
*	*v	*v	*
=23	=23	=23
4.BBB/ 4.BB/	4.B/ 4.d#/ 4.f#/ 4.b/	f
=24	=24	=24
8r	24b\LL	p
.	24dd#\	.
.	24ff#\JJ	.
8r	24bb\LL	.
.	24aa\	.
.	24gg\JJ	.
*clefG2	*	*
8a/	24ff#\LL	.
.	24ee\	.
.	24dd#\JJ	.
=25	=25	=25
8g/L	24ee\LL	.
.	24b\	.
.	24gg\JJ	.
8g/	24ee\LL	.
.	24b\	.
.	24gg\JJ	.
8d#/J	24ff#\LL	.
.	24b\	.
.	24aa\JJ	.
=26	=26	=26
8e/	8gg\	.
8r	8r	.
8r	8r	.
*clefF4	*	*
=27	=27	=27
4.BBB/ 4.BB/	4.B/ 4.d#/ 4.f#/ 4.b/	f
*clefG2	*	*
=28	=28	=28
8r	24b\LL	p
.	24dd#\	.
.	24ff#\JJ	.
8r	24bb\LL	.
.	24aa\	.
.	24gg\JJ	.
8B/ 8a/	24ff#\LL	.
.	24ee\	.
.	24dd#\JJ	.
=29	=29	=29
8e/ 8g/	24ee\LL	.
.	24gg\	.
.	24cc#\JJ	.
*clefF4	*	*
8f#\L	24ddn\LL	.
.	24ff#\	.
.	24b\JJ	.
8F#\J	24cc#\LL	.
.	24ee\	.
.	24a#\JJ	.
=30	=30	=30
8B\	8b\	.
8r	8r	.
8r	8r	.
=31	=31	=31
4.BBB/ 4.BB/	4.B/ 4.d#/ 4.f#/ 4.b/	f
=32	=32	=32
8r	24b\LL	p
.	24dd#\	.
.	24ff#\JJ	.
8r	24bb\LL	.
.	24aa\	.
.	24gg\JJ	.
*clefG2	*	*
8a/	24ff#\LL	.
.	24ee\	.
.	24dd#\JJ	.
=33	=33	=33
8g/L	24ee\LL	.
.	24aa#\	.
.	24bb\JJ	.
8g/	24ee\LL	.
.	24aa#\	.
.	24bb\JJ	.
8d#/J	24ff#\LL	.
.	24aa#\	.
.	24bb\JJ	.
=34	=34	=34
8e/	8gg\	.
8r	8r	.
8r	8r	.
*clefF4	*	*
=35	=35	=35
4.EE/ 4.E/	4.e/ 4.g#/ 4.b/ 4.ee/	f
=36	=36	=36
8r	(24ee\LL	p
.	24gg#\	.
.	24bb\JJ)	.
8r	24eee\LL	.
.	24ddd\	.
.	24ccc\JJ	.
*clefG2	*	*
8dd\	24bb\LL	.
.	24aa\	.
.	24gg#\JJ	.
=37	=37	=37
8cc\L	24aa\LL	.
.	24ddd\	.
.	24eee#\JJ	.
8cc\	24aa\LL	.
.	24eee#\	.
.	24eee#\JJ	.
8g#\J	24bb\LL	.
.	24ddd\	.
.	24eee#\JJ	.
=38	=38	=38
8a/	8ccc\	.
8r	8r	.
8r	8r	.
=39	=39	=39
8d/ 8a/	8ff#\ 8ccc\	pp
8r	8r	.
8r	8r	.
*clefF4	*	*
=40	=40	=40
8D\ 8A\	8f#/ 8cc/	.
8r	8r	.
8r	8r	.
=41	=41	=41
4.r	4.r	.
=42	=42	=42
4.r	8r	.
.	8r	.
.	(16B/LL	p
.	16c/JJ	.
=43	=43	=43
4.r	8d'/)	.
.	(12e/L	.
.	12f#/	.
.	12g'/J)	.
=44	=44	=44
4.r	(16a\LL	.
.	16b\J	.
.	8cc'\J)	.
.	8cc#'\	.
=45	=45	=45
*^	*	*
4B/	4.G\	(4dd\	.
16c/LL	.	16ee\LL	.
16A#/JJ	.	16cc#\JJ	.
=46	=46	=46	=46
8B/	8G\	8dd'\)	.
8r	8r	8r	.
8r	8r	(16b\LL	.
.	.	16ccn\JJ	.
*v	*v	*	*
=47	=47	=47
4.r	8dd'\)	.
.	(16ee\LL	.
.	16ff#\J	.
.	8gg'\J)	.
=48	=48	=48
4.r	(16aa\LL	.
.	16bb\J	.
.	8ccc'\J)	.
.	8ccc#'\	.
*clefG2	*	*
=49	=49	=49
*^	*	*
.	.	(ddq/	.
4b/	4.d\	(4ddd\)	.
16a/LL	.	16cccn\LL	.
16f#/JJ	.	16aa\JJ	.
=50	=50	=50	=50
8g/	8g\	8gg\)	.
8r	8r	8r	.
8r	8r	(24d/LL	p
.	.	24e/	.
.	.	24f#/JJ)	.
*v	*v	*	*
*clefF4	*	*
=51	=51	=51
8r	(24g/LL	.
.	24a/	.
.	24b/JJ)	.
8r	8cc'\	.
8D'\ 8A'\ 8c'\	8r	.
*clefG2	*	*
=52	=52	=52
8d'/ 8a'/ 8cc'/	8r	.
8r	8ccc'\	.
8r	(24d/LL	.
.	24e/	.
.	24f#/JJ)	.
*clefF4	*	*
=53	=53	=53
8r	(24g/LL	.
.	24a/	.
.	24b/JJ)	.
8r	8cc'\	.
8D'\ 8A'\ 8c'\	8r	.
*clefG2	*	*
=54	=54	=54
8d'/ 8a'/ 8cc'/	8r	.
8r	8ccc'\	.
8r	(24d/LL	<
.	24e/	.
.	24f#/JJ	.
*clefF4	*	*
=55	=55	=55
4.r	24g\LL	.
.	24a\	.
.	24b\JJ	.
.	24cc\LL	.
.	24dd\	.
.	24ee\JJ)	.
.	(32ff#\LLL	.
.	32gg\	.
.	32aa\	.
.	32bb\JJJ)	.
=56	=56	=56
8r	8ccc'\L	.
8r	8ccc'\	.
(32DD/LLL	8ccc'\J	.
32EE/	.	.
32FF#/	.	.
32GG/JJJ	.	.
=57	=57	=57
24AA/LL	8ccc'\L	.
24BB/	.	.
24C/JJ	.	.
24D\LL	8aa'\	.
24E\	.	.
24F#\JJ	.	.
24G\LL	8gg'\J	.
24A\	.	.
24B\JJ)	.	.
=58	=58	=58
4c;\ 4d;\	4a;\ 4ff#;\	.
8r	(16b\LL	p
.	16cc\JJ	.
=59	=59	=59
4.r	8dd'\)	.
.	(16ee\LL	.
.	16ff#\J	.
.	8gg'\J)	.
=60	=60	=60
4.r	(16aa\LL	.
.	16bb\J	.
.	8ccc'\J)	.
.	8ccc#'\	.
*clefG2	*	*
=61	=61	=61
*^	*	*
4b/	[4.g\	(4ddd\	.
16cc/LL	.	16eee\LL	.
16a#/JJ	.	16ccc#\JJ	.
=62	=62	=62	=62
*	*	*^	*
8b'/	8g'\]	8r	8ddd'\)	.
8r	8r	8r	8r	.
*v	*v	*	*	*
*clefF4	*	*	*
*^	*	*	*
8c\	8r	(16cccn/LL	8ee\	.
.	.	16aa/JJ	.	.
*v	*v	*	*	*
=63	=63	=63	=63
8d\	8gg/)	8b\	.
8r	8r	8r	.
8D\	(16aa/LL	8cc\	.
.	16ff#/JJ	.	.
=64	=64	=64	=64
8G\	8gg/)	8b\	.
8r	8r	8r	.
(24GG/LL	8r	8r	.
24AA/	.	.	.
24BB/JJ)	.	.	.
*	*v	*v	*
=65	=65	=65
(24C\LL	8r	.
24D\	.	.
24E\JJ)	.	.
8Fn'\	8r	.
8r	8B'/ 8d'/ 8g'/	.
=66	=66	=66
8r	8b'\ 8dd'\ 8gg'\	.
8fn'\	8r	.
(24GG/LL	8r	.
24AA/	.	.
24BB/JJ	.	.
=67	=67	=67
24C/LL	8r	.
24D/	.	.
24E/JJ)	.	.
8Fn'\	8r	.
8r	8B'/ 8d'/ 8g'/	.
=68	=68	=68
8r	8b\ 8dd\ 8gg\	.
8f#'\	8r	.
(24GG/LL	8r	.
24AA/	.	.
24BB/JJ	.	.
=69	=69	=69
24C/LL	8r	.
24D/)	.	.
24E/JJ	.	.
8Fn'\	24G/LL	.
.	24A/	.
.	24B/JJ	.
8r	24c/LL	.
.	24d/	.
.	24e/JJ	.
=70	=70	=70
(24G\LL	8fn'/	.
24A\	.	.
24B\JJ	.	.
24c\LL	8r	.
24d\	.	.
24e\JJ)	.	.
8fn'\	(24g/LL	.
.	24a/	.
.	24b/JJ)	.
=71	=71	=71
4.r	(24cc\LL	.
.	24dd\	.
.	24ee\JJ)	.
.	4ffn\	.
=72	=72	=72
4.r	(4.dd#\	>
=73	=73	=73
16C\LL	(4.ee\)	p
16G\	.	.
16c\	.	.
16G\	.	.
16C\	.	.
16G\JJ	.	.
=74	=74	=74
(16C\LL	(4ffn\)	.
16A\	.	.
16c\	.	.
16A\	.	.
16C\	32gg\LLL	.
.	32ff\	.
16A\JJ)	32ee\	.
.	32ff\JJJ)	.
=75	=75	=75
(16C\LL	(8ff#\L	.
16Fn\	.	.
16B\	8gg\)	.
16F\	.	.
16C\	8gg'\J	.
16F\JJ	.	.
=76	=76	=76
(16C\LL)	4gg\	.
16E\	.	.
16c\	.	.
16E\	.	.
16C\	8ee\	.
16E\JJ)	.	.
=77	=77	=77
*^	*	*
16BB-/LL	4BB-\	(4.cc#\	.
16E/	.	.	.
16G/	.	.	.
16E/	.	.	.
16AA/	8AA\	.	.
16E/JJ	.	.	.
=78	=78	=78	=78
16AA/LL	4AA\	8dd'\L)	.
16D/	.	.	.
.	.	(eeq/	.
16Fn/	.	(16dd\L)	.
16D/	.	16cc#\	.
16AA/	8AA\	16dd\	.
16D/JJ	.	16ee\JJ)	.
=79	=79	=79	=79
(16AA-/LL	4AA-\	(8ffn\L	.
16D/	.	.	.
16Fn/	.	8b\)	.
16D/	.	.	.
16GG/)	8GG\	8b'\J	.
16D/JJ	.	.	.
*v	*v	*	*
=80	=80	=80
(16C\LL	4cc\	.
16E\	.	.
16G\	.	.
16Fn\	.	.
16E\	8r	.
16D\JJ)	.	.
=81	=81	=81
16C\LL	(4.ee\	.
16G\	.	.
16B-\	.	.
16G\	.	.
16C\	.	.
16G\JJ	.	.
=82	=82	=82
(16C\LL	(4ffn\)	.
16Fn\	.	.
16A\	.	.
16F\	.	.
16C\	32gg\LLL	.
.	32ff\	.
16F\JJ)	32ee\	.
.	32ff\JJJ)	.
=83	=83	=83
(16C\LL	(8ff#\L	.
16D\	.	.
16Bn\	8gg\)	.
16D\	.	.
16C\	8gg\J	.
16D\JJ)	.	.
=84	=84	=84
(16C\LL	(4gg\	.
16E\	.	.
16c\	.	.
16E\	.	.
16C\	8ee\)	.
16E\JJ)	.	.
=85	=85	=85
*^	*	*
16BB-/LL	4BB-\	(4.cc#\	.
16E/	.	.	.
16G/	.	.	.
16E/	.	.	.
16AA/	8AA\	.	.
16E/JJ	.	.	.
=86	=86	=86	=86
16AA/LL	4AA\	8dd'\L)	.
16D/	.	.	.
.	.	(eeq/	.
16Fn/	.	(16dd\L)	.
16D/	.	16cc#\	.
16AA/	8AA\	16dd\	.
16D/JJ	.	16ee\JJ)	.
=87	=87	=87	=87
(16AA-/LL	4AA-\	(8ffn\L	.
16D/	.	.	.
16Fn/	.	8b\)	.
16D/	.	.	.
16GG/)	8GG\	8b'\J	.
16D/JJ	.	.	.
*v	*v	*	*
=88	=88	=88
(16C\LL	4cc\	.
16G\	.	.
16Fn\	.	.
16E\	.	.
16D\	8G/	.
16C\JJ)	.	.
=89	=89	=89
16r	4G/ 4fn/	.
(16GG/LL	.	.
16AA/	.	.
16BB/	.	.
16C/	[8G/ 8e/	.
16FF#/JJ)	.	.
=90	=90	=90
16r	4G/] 4d/	.
(16GG/LL	.	.
16AA/	.	.
16BB/	.	.
16C/	[8G/ 8e/	.
16FF#/JJ)	.	.
=91	=91	=91
16r	4G/] 4d/	.
(16GG/LL	.	.
16AA/	.	.
16BB/	.	.
16C/	[8G/ 8e/	.
16FF#/JJ)	.	.
=92	=92	=92
[4.GG/	(16G/] 16d/LL	.
.	16c#/	.
.	16d/	.
.	16e/	.
.	16fn/	.
.	16f#/JJ)	.
=93	=93	=93
16GG/LL]	(4e/ 4g/	.
16FF#/	.	.
16GG/	.	.
16FF#/	.	.
16GG/	8d/ 8fn/	.
16GG#/JJ	.	.
=94	=94	=94
(16AA/LL	4c/) 4e/	.
16GG#/	.	.
16AA/	.	.
16GG#/	.	.
16AA/	8c/ 8e/	.
16GGn/JJ)	.	.
=95	=95	=95
(16FF#/LL	8c'/ 8a'/L	.
16EE/	.	.
16FF#/	8c'/ 8a'/	.
16DD/	.	.
16EE/	8c'/ 8a'/J	.
(16FF#/JJ)	.	.
=96	=96	=96
16GG/LL	4B/ 4d/	.
16AA/	.	.
16BB/	.	.
16C/	.	.
16D/	8r	.
16E/JJ)	.	.
*	*clefF4	*clefF4
=97	=97	=97
*^	*	*
(4Fn/	4.GG\	16r	.
.	.	(16G\LL	.
.	.	16A\	.
.	.	16B\	.
8E-/)	.	16c\	.
.	.	16F#\JJ)	.
=98	=98	=98	=98
(4D/	4.GG\	16r	.
.	.	(16G\LL	.
.	.	16A\	.
.	.	16B\	.
8E-/)	.	16c\	.
.	.	16F#\JJ)	.
=99	=99	=99	=99
(4D/	4.GG\	16r	.
.	.	(16G\LL	.
.	.	16A\	.
.	.	16B\	.
8E-/)	.	16c\	.
.	.	16F#\JJ)	.
*	*	*clefG2	*clefG2
=100	=100	=100	=100
4D/	[4.GG\	(16G/LL	.
.	.	16B/	.
.	.	16c/	.
.	.	16d/	.
8r	.	16e/	.
.	.	16fn/JJ)	.
*v	*v	*	*
=101	=101	=101
(16GG/LL]	(4e/ 4g/	.
16FF#/	.	.
16GG/	.	.
16FF#/	.	.
16GG/	8d/) 8fn/	.
16GG#/JJ)	.	.
=102	=102	=102
(16AA/LL	4c/ 4e/	.
16GG#/	.	.
16AA/	.	.
16GG#/	.	.
16AA/	8c/ 8e/	.
16GGn/JJ)	.	.
=103	=103	=103
(16FF#/LL	8c'/ 8a'/L	.
16EE/	.	.
16FF#/	8c'/ 8a'/	.
16DD/	.	.
16EE/	8c'/ 8a'/J	.
16FF#/JJ)	.	.
=104	=104	=104
(16GG/LL	4B/ 4d/	.
16AA/	.	.
16BB/	.	.
16C/	.	.
16D/	8r	.
16E/JJ)	.	.
=105	=105	=105
(16F#\LL	8a'\ 8cc'\ 8dd'\L	>
16E\	.	.
16F#\	8a'\ 8cc'\ 8dd'\	.
16D\	.	.
16E\	8a'\ 8cc'\ 8dd'\J	.
16F#\JJ)	.	.
=106	=106	=106
(16G\LL	4g\ 4b\ 4dd\	.
16A\	.	.
16B\	.	.
16c\	.	.
16d\	8r	.
16e\JJ)	.	.
=107	=107	=107
(16f#\LL	8cc'\ 8aa'\L	.
16e\	.	.
16f#\	8cc'\ 8aa'\	.
16d\	.	.
16e\	8cc'\ 8aa'\J	.
16f#\JJ)	.	.
=108	=108	=108
4g\	16b/ 16dd/LL	pp
.	(16g/	.
.	16a/	.
.	16b/	.
8r	16cc/	.
.	16dd/JJ)	.
=109	=109	=109
16C\LL	(4.ee\	p
16G\	.	.
16c\	.	.
16G\	.	.
16C\	.	.
16G\JJ	.	.
=110	=110	=110
(16C\LL	(4ffn\)	.
16A\	.	.
16c\	.	.
16A\	.	.
16C\	32gg\LLL	.
.	32ff\	.
16A\JJ)	32ee\	.
.	32ff\JJJ)	.
=111	=111	=111
(16C\LL	(8ff#\L	.
16Fn\	.	.
16B\	8gg\)	.
16F\	.	.
16C\	8gg'\J	.
16F\JJ)	.	.
=112	=112	=112
(16C\LL	(4gg\	.
16E\	.	.
16c\	.	.
16E\	.	.
16C\	8ee\)	.
16E\JJ)	.	.
=113	=113	=113
*^	*	*
16BB-/LL	4BB-\	(4.cc#\	.
16E/	.	.	.
16G/	.	.	.
16E/	.	.	.
16AA/	8AA\	.	.
16E/JJ	.	.	.
=114	=114	=114	=114
16AA/LL	4AA\	8dd'\L)	.
16D/	.	.	.
.	.	(eeq/	.
16Fn/	.	(16dd\L)	.
16D/	.	16cc#\	.
16AA/	8AA\	16dd\	.
16D/JJ	.	16ee\JJ)	.
=115	=115	=115	=115
(16AA-/LL	4AA-\	(8ffn\L	.
16D/	.	.	.
16Fn/	.	8b\)	.
16D/	.	.	.
16GG/)	8GG\	8b'\J	.
16D/JJ	.	.	.
*v	*v	*	*
=116	=116	=116
(16C\LL	8cc'\L	.
16E\	.	.
16G\	(16gg\L	.
16E\	16ffn\	.
16C\	16ee\	.
16E\JJ)	16dd\JJ)	.
=117	=117	=117
*^	*	*
16BB-/LL	4BB-\	(4.cc#\	.
16E/	.	.	.
16G/	.	.	.
16E/	.	.	.
16AA/	8AA\	.	.
16E/JJ	.	.	.
=118	=118	=118	=118
16AA/LL	4AA\	8dd\L)	.
16D/	.	.	.
.	.	(eeq/	.
16Fn/	.	(16dd\L)	.
16D/	.	16cc#\	.
16AA/	8AA\	16dd\	.
16D/JJ	.	16ee\JJ)	.
=119	=119	=119	=119
(16AA-/LL	4AA-\	(8ffn\L	.
16D/	.	.	.
16Fn/	.	8b\)	.
16D/	.	.	.
16GG/)	8GG\	8b'\J	.
16D/JJ	.	.	.
*v	*v	*	*
=120	=120	=120
(16C\LL	8ccn\	.
16E\	.	.
16G\	8r	.
16E\	.	.
16D\	8r	.
16C\JJ)	.	.
=121	=121	=121
.	(ff#q/	.
16GG/LL	(4fffn\)	.
16D/	.	.
16Fn/	.	.
16D/	.	.
16GG/	8bb\	.
16D/JJ	.	.
=122	=122	=122
(16C\LL	8ccc'\)	.
16E\	.	.
16G\	8r	.
16E\	.	.
16D\	8r	.
16C\JJ)	.	.
=123	=123	=123
.	(fnq/	.
16GG/LL	(4ffn\)	.
16D/	.	.
16Fn/	.	.
16D/	.	.
16GG/	8b\	.
16D/JJ	.	.
=124	=124	=124
8C/ 8E/	8cc'\)	.
8r	8r	.
8r	(16e/LL	p
.	16fn/JJ	.
=125	=125	=125
4.r	8g'/)	.
.	(16a\LL	.
.	16b\J	.
.	8cc'\J)	.
=126	=126	=126
4.r	(16dd\LL	.
.	16ee\J	.
.	8ffn'\J)	.
.	8ff#'\	.
*clefG2	*	*
=127	=127	=127
*^	*	*
4e/	[4.c\	(4gg\	.
16fn/LL	.	16aa\LL	.
16d#/JJ	.	16ff#\JJ	.
=128	=128	=128	=128
8e'/	8c\]	8gg'\)	.
8r	8r	8r	.
8r	8r	(16e/LL	.
.	.	16fn/JJ	.
*v	*v	*	*
=129	=129	=129
4.r	8g'/)	.
.	(16a\LL	.
.	16b\J	.
.	8cc'\J)	.
=130	=130	=130
4.r	(16dd\LL	.
.	16ee\J	.
.	8ffn'\J)	.
.	8ff#'\	.
*clefF4	*	*
=131	=131	=131
.	(gq/	.
4e\	(4gg\)	.
16d\LL	16ffn\LL	.
16B\JJ	16dd\JJ	.
=132	=132	=132
8c'\	8ee'\)	>
8r	8r	.
16B\LL	(16dd\LL	.
16G#\JJ	16b\JJ	.
=133	=133	=133
8A'\	8cc'\)	.
8r	8r	.
16Gn\LL	(16b/LL	.
16E\JJ	16gn/JJ	.
=134	=134	=134
8F#'\	8a'/)	.
8r	8r	.
16E\LL	(16g/LL	.
16C#\JJ	16e/JJ	.
=135	=135	=135
8D'\	8f#'/)	.
8r	8r	.
(16EE/LL	8r	pp
16CC#/JJ	.	.
=136	=136	=136
8DD'/)	4.r	.
8r	.	.
(16EE/LL	.	.
16CC#/JJ)	.	.
=137	=137	=137
[4.DD/	4.r	.
=138	=138	=138
4DD;/]	4r;	.
8r	(16B/LL	p
.	16c/JJ	.
=139	=139	=139
4.r	8d'/)	.
.	(16e/LL	.
.	16f#/J	.
.	8g'/J)	.
=140	=140	=140
4.r	(16a\LL	.
.	16b\J	.
.	8cc'\J)	.
.	8cc#'\	.
=141	=141	=141
*^	*	*
4B/	[4.G\	(4dd\	.
16c/LL	.	16ee\LL	.
16A#'/JJ	.	16cc#\JJ	.
=142	=142	=142	=142
8B/	8G\]	8dd'\)	.
8r	8r	8r	.
8r	8r	(16b\LL	.
.	.	16ccn\JJ	.
*v	*v	*	*
=143	=143	=143
4.r	8dd'\)	.
.	(16ee\LL	.
.	16ff#\J	.
.	8gg'\J)	.
=144	=144	=144
4.r	(16aa\LL	.
.	16bb\J	.
.	8ccc'\J)	.
.	8ccc#'\	.
*clefG2	*	*
=145	=145	=145
*^	*	*
.	.	(ddq/	.
4b/	4.d\	(4ddd\)	.
16a/LL	.	16cccn\LL	.
16f#/JJ	.	16aa\JJ	.
=146	=146	=146	=146
8g/	8g\	8gg\)	.
8r	8r	8r	.
8r	8r	(24d/LL	p
.	.	24e/	.
.	.	24f#/JJ	.
*v	*v	*	*
*clefF4	*	*
=147	=147	=147
8r	24g/LL	.
.	24a/	.
.	24b/JJ)	.
8r	8cc'\	.
8D'\ 8A'\ 8c'\	8r	.
*clefG2	*	*
=148	=148	=148
8d'/ 8a'/ 8cc'/	8r	.
8r	8ccc'\	.
8r	(24d/LL	.
.	24e/	.
.	24f#/JJ	.
*clefF4	*	*
=149	=149	=149
8r	24g/LL	.
.	24a/	.
.	24b/JJ)	.
8r	8cc'\	.
8D'\ 8A'\ 8c'\	8r	.
*clefG2	*	*
=150	=150	=150
8d'/ 8a'/ 8cc'/	8r	.
8r	8ccc'\	.
8r	(24d/LL	.
.	24e/	.
.	24f#/JJ	.
*clefF4	*	*
=151	=151	=151
4.r	24g/LL	.
.	24a/	.
.	24b/JJ)	.
.	(24cc\LL	.
.	24dd\	.
.	24ee\JJ	.
.	32ff#\LLL	.
.	32gg\	.
.	32aa\	.
.	32bb\JJJ)	.
=152	=152	=152
8r	8ccc'\L	.
8r	8ccc'\	.
(32DD/LLL	8ccc'\J	.
32EE/	.	.
32FF#/	.	.
32GG/JJJ	.	.
=153	=153	=153
24AA/LL	8ccc'\L	.
24BB/	.	.
24C/JJ	.	.
24D\LL	8aa'\	.
24E\	.	.
24F#\JJ	.	.
24G\LL	8gg'\J	.
24A\	.	.
24B\JJ)	.	.
=154	=154	=154
4c;\ 4d;\	4a;\ 4ff#;\	.
8r	(16b\LL	p
.	16cc\JJ	.
=155	=155	=155
4.r	8dd'\)	.
.	(16ee\LL	.
.	16ff#\J	.
.	8gg'\J)	.
=156	=156	=156
4.r	(16aa\LL	.
.	16bb\J	.
.	8ccc'\J)	.
.	8ccc#'\	.
*clefG2	*	*
=157	=157	=157
*^	*	*
4b/	[4.g\	(4ddd\	.
16cc/LL	.	16eee\LL	.
16a#/JJ	.	16ccc#\JJ	.
=158	=158	=158	=158
*	*	*^	*
8b'/	8g\]	8r	8ddd'\)	.
8r	8r	8r	8r	.
*v	*v	*	*	*
*clefF4	*	*	*
*^	*	*	*
8r	8c\	(16cccn/LL	8ee\	.
.	.	16aa/JJ	.	.
*v	*v	*	*	*
=159	=159	=159	=159
8d\	8gg/)	8b\	.
8r	8r	8r	.
8D\	(16aa/LL	8cc\	.
.	16ff#/JJ	.	.
=160	=160	=160	=160
8G\	8gg/)	8b\	.
8r	8r	8r	.
(24D\LL	8r	8r	.
24E\	.	.	.
24F#\JJ	.	.	.
*	*v	*v	*
=161	=161	=161
24G\LL	8r	.
24A\	.	.
24B\JJ)	.	.
8c'\	8r	.
8r	8f#'/ 8a'/ 8dd'/	.
*clefG2	*	*
=162	=162	=162
8r	8ff#'\ 8aa'\ 8ddd'\	<
8cc'\	8r	.
*clefF4	*	*
(24D\LL	8r	.
24E\	.	.
24F#\JJ	.	.
=163	=163	=163
24G\LL	8r	.
24A'\	.	.
24B\JJ)	.	.
8c'\	8r	.
8r	8f#'/ 8a'/ 8dd'/	.
*clefG2	*	*
=164	=164	=164
8r	8ff#'\ 8aa'\ 8ddd'\	<
8cc'\	8r	.
*clefF4	*	*
(24D\LL	8r	.
24E\	.	.
24F#\JJ	.	.
=165	=165	=165
24G\LL	8r	.
24A'\	.	.
24B\JJ)	.	.
8c'\	24d/LL	.
.	24e/	.
.	24f#/JJ	.
8r	24g/LL	.
.	24a/	.
.	24b/JJ	.
*clefG2	*	*
=166	=166	=166
24d/LL	8cc'\	.
24e/	.	.
24f#/JJ	.	.
24g/LL	8r	.
24a/	.	.
24b/JJ	.	.
8cc'\	(24dd\LL	.
.	24ee\	.
.	24ff#\JJ	.
=167	=167	=167
4.r	24gg\LL	.
.	24aa\	.
.	24bb\JJ)	.
.	8ccc'\	>
.	8r	.
=168	=168	=168
4.r	4.r	.
=169	=169	=169
(24d#/LL	4.r	.
24e/	.	.
24f#/JJ	.	.
24g/LL	.	.
24a/	.	.
24b/JJ)	.	.
8cc'\	.	.
=170	=170	=170
4.r	(24dd#\LL	.
.	24ee\	.
.	24ff#\JJ	.
.	24gg\LL	.
.	24aa\	.
.	24bb\JJ)	.
.	8ccc'\	.
=171	=171	=171
(24e/LL	4.r	.
24f#/	.	.
24g#/JJ	.	.
24a/LL	.	.
24b-/	.	.
24bn/JJ)	.	.
8cc'\	.	.
=172	=172	=172
4.r	(24ee\LL	.
.	24ff#\	.
.	24gg#\JJ	.
.	24aa\LL	.
.	24bb-\	.
.	24bbn\JJ)	.
.	8ccc'\	.
=173	=173	=173
4.r	4.r	.
=174	=174	=174
4.r	8r	.
.	8r	.
.	(16a\LL	pp
.	16b-\JJ	.
=175	=175	=175
4.r	8cc'\)	.
.	(16ddn\LL	.
.	16ee\J	.
.	8ffn'\J)	.
=176	=176	=176
4.r	(16gg\LL	.
.	16aa\J	.
.	8bb-'\J)	.
.	8bbn'\	.
=177	=177	=177
*^	*	*
4a/	[4.fn\	(4ccc\	.
16b-/LL	.	16ddd\LL	.
16g/JJ	.	16bb\JJ	.
=178	=178	=178	=178
8a/	8f\]	8ccc'\)	.
8r	8r	8r	.
8r	8r	(16a\LL	.
.	.	16b-\JJ	.
*v	*v	*	*
=179	=179	=179
4.r	8cc'\)	.
.	(16dd\LL	.
.	16ee\J	.
.	8ffn'\J)	.
=180	=180	=180
4.r	(16gg\LL	.
.	16aa\J	.
.	8bb-'\J)	.
.	8bbn'\	.
=181	=181	=181
*^	*	*
4a/	4.fn\	(4ccc\	pp
16b-/LL	.	16ddd\LL	.
16g#/JJ	.	16bbn\JJ	.
=182	=182	=182	=182
4a/	4.e\	4ccc\	.
16bn/LL	.	16ddd\LL	.
16g#/JJ	.	16bb\JJ	.
=183	=183	=183	=183
4a/	4.d#\	4ccc\	.
16b/LL	.	16ddd\LL	.
16g#/JJ	.	16bb\JJ	.
=184	=184	=184	=184
8a'/L	4.dn\	8ccc'\L)	.
8a'/	.	8ccc'\	.
8a'/J	.	8ccc'\J	.
=185	=185	=185	=185
8gn/	8gn\	(32ccc\LLK	p
.	.	16.bb\JJ)	.
8r	8r	(32aa\LLK	.
.	.	16.gg\JJ)	.
8r	8r	(32ff#\LLK	.
.	.	16.gg\JJ)	.
*v	*v	*	*
=186	=186	=186
8c#/ 8g/ 8a/	(32aa\LLK	.
.	16.gg\JJ)	.
8r	(32ff#\LLK	.
.	16.ee\JJ)	.
8r	(32dd#\LLK	.
.	16.ee\JJ)	.
=187	=187	=187
8d/ 8g/ 8b/	(32gg\LLK	.
.	16.ff#\JJ)	.
8r	(32ee\LLK	.
.	16.ddn\JJ)	.
8r	(32cc\LLK	.
.	16.b\JJ)	.
*clefF4	*	*
=188	=188	=188
8D\ 8A\ 8c\	32dd\LLK	.
.	16.cc\JJ	.
8r	(32b/LLK	.
.	16.a/JJ)	.
8r	32g/LLK	.
.	16.f#/JJ	.
=189	=189	=189
8GG/	8g/	p
8r	(24G/LL	.
.	24B/	.
.	24d/JJ)	.
8r	24G/LL	.
.	24B/	.
.	24d/JJ	.
*clefG2	*	*
=190	=190	=190
4.g/	24G/LL	.
.	24B/	.
.	24d/JJ	.
.	24G/LL	.
.	24B/	.
.	24d/JJ	.
.	24G/LL	.
.	24B/	.
.	24d/JJ	.
=191	=191	=191
(8f#/L	24A/LL	.
.	24c/	.
.	24d/JJ	.
8dd/)	24A/LL	.
.	24c/	.
.	24d/JJ	.
8dd'/J	24A/LL	.
.	24c/	.
.	24d/JJ	.
*clefF4	*	*
=192	=192	=192
4.FF#/	24A/LL	.
.	24c/	.
.	24d/JJ	.
.	24A/LL	.
.	24c/	.
.	24d/JJ	.
.	24A/LL	.
.	24c/	.
.	24d/JJ	.
=193	=193	=193
(8GG/L	24G/LL	.
.	24B/	.
.	24d/JJ	.
8D/)	24G/LL	.
.	24B/	.
.	24d/JJ	.
8D'/J	24G/LL	.
.	24B/	.
.	24d/JJ	.
*clefG2	*	*
=194	=194	=194
4.g/	24G/LL	.
.	24B/	.
.	24d/JJ	.
.	24G/LL	.
.	24B/	.
.	24d/JJ	.
.	24G/LL	.
.	24B/	.
.	24d/JJ	.
=195	=195	=195
8f#/	24A/LL	.
.	24c/	.
.	24d/JJ	.
(8ee\L	24A/LL	.
.	24c/	.
.	24d/JJ	.
8dd\J)	24A/LL	.
.	24c/	.
.	24d/JJ	.
*clefF4	*	*
=196	=196	=196
4.FF#/	24A/LL	.
.	24c/	.
.	24d/JJ	.
.	24A/LL	.
.	24c/	.
.	24d/JJ	.
.	24A/LL	.
.	24c/	.
.	24d/JJ	.
=197	=197	=197
8GG'/	24G/LL	.
.	24B/	.
.	24d/JJ	.
(8E\L	24G/LL	.
.	24B/	.
.	24d/JJ	.
8D\J)	24G/LL	.
.	24B/	.
.	24d/JJ	.
*clefG2	*	*
=198	=198	=198
8f#'/	24A/LL	.
.	24c/	.
.	24d/JJ	.
(8ee\L	24A/LL	.
.	24c/	.
.	24d/JJ	.
8dd\J)	24A/LL	.
.	24c/	.
.	24d/JJ	.
*clefF4	*	*
=199	=199	=199
8GG'/	24G/LL	.
.	24B/	.
.	24d/JJ	.
(8E\L	24G/LL	.
.	24B/	.
.	24d/JJ	.
8D\J)	24G/LL	.
.	24B/	.
.	24d/JJ	.
*clefG2	*	*
=200	=200	=200
8f#'/	24A/LL	.
.	24c/	.
.	24d/JJ	.
(8ee\L	24A/LL	.
.	24c/	.
.	24d/JJ	.
8dd\J)	24A/LL	.
.	24c/	.
.	24d/JJ	.
*clefF4	*	*
=201	=201	=201
8r	16G/LL	.
.	16B/	.
8r	16A/	.
.	16c/	.
8G'\	16B/	.
.	16d/JJ	.
=202	=202	=202
8A'\L	16c/LL	.
.	16e/	.
8B'\	16d/	.
.	16f#/	.
8c'\J	16e/	.
.	16g/JJ	.
=203	=203	=203
8d'\L	16f#/LL	.
.	16a/	.
8e'\	16g/	.
.	16b/	.
8f#'\J	16a/	.
.	16cc/JJ	.
=204	=204	=204
8g'\L	16b/LL	.
.	16cc#/	<
8F#'\	16dd/	.
.	16ccn/	.
8G'\J	16b/	.
.	16g/JJ	.
=205	=205	=205
8G#'\L	16ee\LL	.
.	16dd\	.
8A'\	16cc\	.
.	16a\	.
8A#'\J	16ff#\	.
.	16ee\JJ	.
=206	=206	=206
8B'\	16dd\LL	.
.	16b\	.
*clefG2	*	*
8B'/ 8g'/L	16gg\	.
.	16ffn\	.
8c'/ 8g'/J	16ee\	.
.	16cc\JJ	.
=207	=207	=207
8B'/ 8g'/L	16gg\LL	.
.	16ffn\	.
8c'/ 8g'/	16ee\	.
.	16cc\	.
8B'/ 8g'/J	16gg\	.
.	16ff\JJ	.
=208	=208	=208
8c'/ 8g'/L	16ee\LL	ff
.	16cc\	.
8B'/ 8g'/	16gg\	.
.	16ffn\	.
8c'/ 8g'/J	16ee\	.
.	16cc\JJ	.
=209	=209	=209
8c'/ 8g'/	8r	p
8r	(24gg\LL	.
.	24ff#\	.
.	24ee\JJ)	.
8r	(24gg\LL	.
.	24ff#\	.
.	24ee\JJ)	.
=210	=210	=210
8c#/ 8g/ 8a/	8r	.
8r	(24gg\LL	.
.	24ff#\	.
.	24ee\JJ)	.
8r	(24gg\LL	.
.	24ff#\	.
.	24ee\JJ)	.
=211	=211	=211
8d'/ 8g'/ 8b'/	8r	.
8r	(24dd\LL	.
.	24cc\	.
.	24b\JJ)	.
8r	(24dd\LL	.
.	24cc\	.
.	24b\JJ)	.
*clefF4	*	*
=212	=212	=212
8D'\ 8A'\ 8c'\	8r	.
8r	(24a/LL	.
.	24g/	.
.	24f#/JJ)	.
8r	(24a/LL	.
.	24g/	.
.	24f#/JJ)	.
=213	=213	=213
24G\LL	4g/	.
24B\	.	.
24d\JJ	.	.
24G\LL	.	.
24B\	.	.
24d\JJ	.	.
24G\LL	8r	.
24B\	.	.
24d\JJ	.	.
*	*clefF4	*clefF4
=214	=214	=214
24G\LL	4.GG/	.
24B\	.	.
24d\JJ	.	.
24G\LL	.	.
24B\	.	.
24d\JJ	.	.
24G\LL	.	.
24B\	.	.
24d\JJ	.	.
=215	=215	=215
24A\LL	(8FF#/L	.
24c\	.	.
24d\JJ	.	.
24A\LL	8D/)	.
24c\	.	.
24d\JJ	.	.
24A\LL	8D'/J	.
24c\	.	.
24d\JJ	.	.
*	*clefG2	*clefG2
=216	=216	=216
24A\LL	4.f#/	.
24c\	.	.
24d\JJ	.	.
24A\LL	.	.
24c\	.	.
24d\JJ	.	.
24A\LL	.	.
24c\	.	.
24d\JJ	.	.
=217	=217	=217
24G\LL	(8g\L	.
24B\	.	.
24d\JJ	.	.
24G\LL	8dd\)	.
24B\	.	.
24d\JJ	.	.
24G\LL	8dd'\J	.
24B\	.	.
24d\JJ	.	.
*	*clefF4	*clefF4
=218	=218	=218
24G\LL	4.GG/	.
24B\	.	.
24d\JJ	.	.
24G\LL	.	.
24B\	.	.
24d\JJ	.	.
24G\LL	.	.
24B\	.	.
24d\JJ	.	.
=219	=219	=219
24A\LL	8FF#'/L	.
24c\	.	.
24d\JJ	.	.
24A\LL	(8E/	.
24c\	.	.
24d\JJ	.	.
24A\LL	8D/J)	.
24c\	.	.
24d\JJ	.	.
*	*clefG2	*clefG2
=220	=220	=220
24A\LL	4.f#/	.
24c\	.	.
24d\JJ	.	.
24A\LL	.	.
24c\	.	.
24d\JJ	.	.
24A\LL	.	.
24c\	.	.
24d\JJ	.	.
=221	=221	=221
24G\LL	8g/	.
24B\	.	.
24d\JJ	.	.
24G\LL	(8ee\L	.
24B\	.	.
24d\JJ	.	.
24G\LL	8dd\J)	.
24B\	.	.
24d\JJ	.	.
*	*clefF4	*clefF4
=222	=222	=222
24A\LL	8FF#'/	.
24c\	.	.
24d\JJ	.	.
24A\LL	(8E\L	.
24c\	.	.
24d\JJ	.	.
24A\LL	8D\J)	.
24c\	.	.
24d\JJ	.	.
*	*clefG2	*clefG2
=223	=223	=223
24G\LL	8g'/	.
24B\	.	.
24d\JJ	.	.
24G\LL	(8ee\L	.
24B\	.	.
24d\JJ	.	.
24G\LL	8dd\J)	.
24B\	.	.
24d\JJ	.	.
*	*clefF4	*clefF4
=224	=224	=224
24A\LL	8FF#'/	.
24c\	.	.
24d\JJ	.	.
24A\LL	(8E\L	.
24c\	.	.
24d\JJ	.	.
24A\LL	8D\J)	.
24c\	.	.
24d\JJ	.	.
=225	=225	=225
8r	16GG/LL	p
.	16BB/	.
8r	16AA/	.
.	16C/	.
8GGG'/ 8GG'/	16BB/	.
.	16D/JJ	.
=226	=226	=226
8AAA'/ 8AA'/L	16C\LL	.
.	16E\	.
8BBB'/ 8BB'/	16D\	.
.	16F#\	.
8CC'/ 8C'/J	16E\	.
.	16G\JJ	.
=227	=227	=227
8DD'/ 8D'/L	16F#\LL	.
.	16A\	.
8EE'/ 8E'/	16G\	.
.	16B\	.
8FF#'/ 8F#'/J	16A\	.
.	16c\JJ	.
*	*clefG2	*clefG2
=228	=228	=228
8GG'\ 8G'\	16B/LL	<
.	16c#/	.
8FF#'/L	16d/	.
.	16cn/	.
8GG'/J	16B/	.
.	16G/JJ	.
=229	=229	=229
8GG#'/L	16e/LL	.
.	16d/	.
8AA'/	16c/	.
.	16A/	.
8AA#'/J	16f#/	.
.	16e/JJ	.
=230	=230	=230
8BB'\L	16d/LL	.
.	16B/	.
8BB'\ 8G'\	16g/	.
.	16fn/	.
8C'\ 8G'\J	16e/	.
.	16c/JJ	.
=231	=231	=231
8BB'\ 8G'\L	16g/LL	.
.	16fn/	.
8C'\ 8G'\	16e/	.
.	16c/	.
8BB'\ 8G'\J	16g/	.
.	16f/JJ	.
=232	=232	=232
8C'\ 8G'\L	16e/LL	ff
.	16c/	.
8BB'\ 8G'\	16g/	.
.	16fn/	.
8C'\ 8G'\J	16e/	.
.	16c/JJ	.
=233	=233	=233
8C'\ 8G'\	8r	.
8r	(24gg\LL	p
.	24ff#\	.
.	24ee\JJ)	.
8r	(24gg\LL	.
.	24ff#\	.
.	24ee\JJ)	.
=234	=234	=234
8C'\ 8G'\ 8A'\	8r	.
8r	(24gg\LL	.
.	24ff#\	.
.	24ee\JJ)	.
8r	(24gg\LL	.
.	24ff#\	.
.	24ee\JJ)	.
=235	=235	=235
8D'\ 8G'\ 8B'\	8r	.
8r	(24dd\LL	.
.	24cc\	.
.	24b\JJ)	.
8r	(24dd\LL	.
.	24cc\	.
.	24b\JJ)	.
=236	=236	=236
8D'\ 8A'\ 8c'\	8r	.
8r	(24a/LL	.
.	24g/	.
.	24f#/JJ)	.
8r	(24a/LL	.
.	24g/	.
.	24f#/JJ)	.
=237	=237	=237
24GG\LL	8g/	.
24D\	.	.
24G\JJ	.	.
24GG\LL	8r	.
24D\	.	.
24G\JJ	.	.
24GG\LL	(16b\LL	.
24D\	.	.
.	16cc\JJ	.
24G\JJ	.	.
=238	=238	=238
24GG\LL	8dd'\)	<
24D\	.	.
24G\JJ	.	.
24GG\LL	(16ee\LL	.
24D\	.	.
.	16ff#\J	.
24G\JJ	.	.
24GG\LL	8gg'\J)	.
24D\	.	.
24G\JJ	.	.
=239	=239	=239
24GG\LL	(16aa\LL	.
24D\	.	.
.	16bb\J	.
24G\JJ	.	.
24GG\LL	8ccc'\J)	.
24D\	.	.
24G\JJ	.	.
24GG\LL	8cc#'\ 8ccc#'\	.
24D\	.	.
24G\JJ	.	.
=240	=240	=240
24GG\LL	4dd\ (4ddd\	.
24D\	.	.
24G\JJ	.	.
24GG\LL	.	.
24D\	.	.
24G\JJ	.	.
24GG\LL	16eee\LL	.
24D\	.	.
.	16ccc#\JJ	.
24G\JJ	.	.
=241	=241	=241
24GG\LL	8ddd'\)	.
24D\	.	.
24G\JJ	.	.
24GG\LL	8r	.
24D\	.	.
24G\JJ	.	.
24GG\LL	(16b\LL	.
24D\	.	.
.	16ccn\JJ	.
24G\JJ	.	.
=242	=242	=242
24GG\LL	8dd'\)	<
24D\	.	.
24G\JJ	.	.
24GG\LL	(16ee\LL	.
24D\	.	.
.	16ff#\J	.
24G\JJ	.	.
24GG\LL	8gg'\J)	.
24D\	.	.
24G\JJ	.	.
=243	=243	=243
24GG\LL	(16aa\LL	.
24D\	.	.
.	16bb\J	.
24G\JJ	.	.
24GG\LL	8ccc'\J)	.
24D\	.	.
24G\JJ	.	.
24GG\LL	8cc#'\ 8ccc#'\	.
24D\	.	.
24G\JJ	.	.
=244	=244	=244
24GG\LL	4dd\ (4ddd\	.
24D\	.	.
24G\JJ	.	.
24GG\LL	.	.
24D\	.	.
24G\JJ	.	.
24GG\LL	16cccn\LL	.
24D\	.	.
.	16aa\JJ	.
24G\JJ	.	.
=245	=245	=245
24GG\LL	8gg'\)	.
24D\	.	.
24G\JJ	.	.
24GG\LL	8r	.
24D\	.	.
24G\JJ	.	.
24GG\LL	8c#'/ 8cc#'/	.
24D\	.	.
24G\JJ	.	.
=246	=246	=246
24GG\LL	4d\ (4dd\	.
24D\	.	.
24G\JJ	.	.
24GG\LL	.	.
24D\	.	.
24G\JJ	.	.
24GG\LL	16ee\LL	.
24D\	.	.
.	16cc#\JJ	.
24G\JJ	.	.
=247	=247	=247
24GG\LL	8dd'\)	.
24D\	.	.
24G\JJ	.	.
24GG\LL	8r	.
24D\	.	.
24G\JJ	.	.
24GG\LL	8cc#'\ 8ccc#'\	.
24D\	.	.
24G\JJ	.	.
=248	=248	=248
24GG\LL	4dd\ (4ddd\	.
24D\	.	.
24G\JJ	.	.
24GG\LL	.	.
24D\	.	.
24G\JJ	.	.
24GG\LL	16cccn\LL	.
24D\	.	.
.	16aa\JJ	.
24G\JJ	.	.
=249	=249	=249
24GG\LL	8gg'\)	.
24D\	.	.
24G\JJ	.	.
24GG\LL	8r	.
24D\	.	.
24G\JJ	.	.
24GG\LL	(16cc/LL	p
24D\	.	.
.	16a/JJ	.
24G\JJ	.	.
=250	=250	=250
24GG\LL	8g'/)	.
24D\	.	.
24G\JJ	.	.
24GG\LL	8r	.
24D\	.	.
24G\JJ	.	.
24GG\LL	(16ccc\LL	.
24D\	.	.
.	16aa\JJ	.
24G\JJ	.	.
=251	=251	=251
24GG\LL	8gg'\)	.
24D\	.	.
24G\JJ	.	.
24GG\LL	8r	.
24D\	.	.
24G\JJ	.	.
24GG\LL	(16cc/LL	.
24D\	.	.
.	16a/JJ	.
24G\JJ	.	.
=252	=252	=252
8GG/	8g'/)	.
8r	8r	.
(16AAA/LL	8r	pp
16FFF#/JJ	.	.
=253	=253	=253
8GGG/)	4.r	.
8r	.	.
8r	.	.
=254	=254	=254
4r	4r	.
8r	8r	.
==	==	==
*-	*-	*-
!!!ENC: Craig Stuart Sapp
!!!END: 2005/08/24/
